SVG/North.svg

<svg height="46" viewBox="0 0 34 46" width="34" xmlns="http://www.w3.org/2000/svg" xmlns:xlink="http://www.w3.org/1999/xlink"><filter id="a" height="183.1%" width="190%" x="-45%" y="-41.5%"><feOffset dx="0" dy="1" in="SourceAlpha" result="shadowOffsetOuter1"/><feGaussianBlur in="shadowOffsetOuter1" result="shadowBlurOuter1" stdDeviation=".9"/><feColorMatrix in="shadowBlurOuter1" result="shadowMatrixOuter1" type="matrix" values="0 0 0 0 0   0 0 0 0 0   0 0 0 0 0  0 0 0 0.65 0"/><feMerge><feMergeNode in="shadowMatrixOuter1"/><feMergeNode in="SourceGraphic"/></feMerge></filter><g fill="none" filter="url(#a)" transform="translate(7 5)"><path d="m12 6-6-6-6 6h4v7h4v-7z" fill="#fff"/><path d="m5 12v-7h-2.59l3.59-3.59 3.59 3.59h-2.59v7z" fill="#000"/></g></svg>

<svg width="18" height="18" viewBox="0 0 18 18" xmlns="http://www.w3.org/2000/svg"><defs><filter x="-26.7%" y="-16.9%" width="153.3%" height="149.2%" filterUnits="objectBoundingBox" id="a"><feOffset dy="1" in="SourceAlpha" result="shadowOffsetOuter1"/><feGaussianBlur stdDeviation=".9" in="shadowOffsetOuter1" result="shadowBlurOuter1"/><feColorMatrix values="0 0 0 0 0 0 0 0 0 0 0 0 0 0 0 0 0 0 0.65 0" in="shadowBlurOuter1" result="shadowMatrixOuter1"/><feMerge><feMergeNode in="shadowMatrixOuter1"/><feMergeNode in="SourceGraphic"/></feMerge></filter></defs><g filter="url(#a)" transform="translate(3 2)" fill="none"><path fill="#FFF" d="M12 6L6 0 0 6h4v7h4V6z"/><path fill="#000" d="M5 12V5H2.41L6 1.41 9.59 5H7v7z"/></g></svg>
